kodi/_inc/system.svg

<svg xmlns="http://www.w3.org/2000/svg"><g fill="#fff"><path d="m398.781 42.086c1.012.063 2.027.126 3.042.195 7.774.538 15.21 2.364 22.155 5.97 4.961 2.58 9.36 5.919 13.285 9.898 4.261 4.324 7.787 9.168 10.438 14.633 1.949 4.015 3.301 8.222 4.241 12.576 1.144 5.339 1.522 10.745 1.297 16.18-.367 8.726-2.297 17.063-6.411 24.825-2.868 5.417-6.61 10.168-11.06 14.369-7.138 6.739-15.501 11.135-25.111 13.171-3.555.751-7.138 1.225-10.774 1.339-.162.006-.327.054-.49.081h-4.276c-.931-.069-1.862-.132-2.786-.201-11.126-.805-21.282-4.24-30.084-11.246-6.945-5.525-12.387-12.267-16.095-20.363-1.886-4.111-3.15-8.423-3.991-12.864-.949-5.024-1.252-10.096-1-15.192.537-10.726 3.363-20.744 9.588-29.621 7.285-10.384 16.807-17.771 29.104-21.341 3.748-1.088 7.568-1.814 11.463-2.112 1.237-.096 2.471-.144 3.705-.219.204-.012.403-.051.604-.078zm-1.691 98.676c3.955-.03 7.781-.354 11.537-1.282 8.177-2.018 14.979-6.261 20.384-12.729 5.52-6.601 8.387-14.273 9.165-22.778.27-2.909.3-5.825.129-8.744-.192-3.168-.606-6.303-1.447-9.369-2.625-9.571-8-17.207-16.258-22.732-6.177-4.129-13.09-6.018-20.459-6.385-4.027-.198-8.033-.015-12.006.706-6.939 1.261-13.113 4.126-18.434 8.787-5.159 4.522-8.892 10.014-11.198 16.474-1.751 4.885-2.448 9.945-2.52 15.11-.06 4.012.222 8 1.093 11.922 1.583 7.078 4.766 13.324 9.733 18.645 4.384 4.7 9.6 8.078 15.672 10.147 4.772 1.625 9.699 2.177 14.609 2.228"/><path d="m600 152.777c-.417 1.012-.738 1.216-1.882 1.216-3.733 0-7.466.003-11.204 0-1.316 0-1.799-.489-1.799-1.811v-106.919c0-1.372.483-1.853 1.877-1.853 3.732 0 7.468-.012 11.198.021.462.003.964.187 1.36.43.237.147.306.567.45.871z"/><path d="m295.471 88.268c1.883 2.502 3.748 4.979 5.616 7.459 3.955 5.255 7.906 10.511 11.864 15.772 5.087 6.762 10.174 13.522 15.261 20.281 4.988 6.628 9.967 13.252 14.961 19.874.372.486.531.982.267 1.549-.27.571-.793.757-1.381.787-.271.018-.541.003-.814.003-4.598 0-9.198-.003-13.799.006-.786 0-1.363-.264-1.858-.916-8.673-11.594-17.366-23.176-26.057-34.759-4.934-6.576-9.873-13.155-14.81-19.729-.039-.054-.087-.102-.156-.186-.601.558-1.195 1.114-1.787 1.664-4.006 3.744-8.006 7.486-12.009 11.23-2.204 2.06-4.411 4.123-6.63 6.171-.288.262-.406.526-.406.916.012 11.198.009 22.402.009 33.603 0 .132.003.27 0 .408-.03 1.024-.552 1.583-1.576 1.589-3.922.012-7.841.009-11.762 0-.994-.006-1.517-.565-1.538-1.565-.003-.114 0-.237 0-.354v-106.709-.105c0-1.348.486-1.844 1.829-1.844h10.741c.237 0 .475-.009.715 0 1.036.049 1.546.559 1.591 1.592.007.153 0 .306 0 .456v51.732.717c.889-.831 1.691-1.573 2.487-2.324 4.729-4.435 9.45-8.873 14.183-13.306 6.201-5.81 12.405-11.621 18.609-17.432 5.198-4.873 10.393-9.753 15.588-14.627 2.189-2.057 4.384-4.105 6.57-6.168.454-.429.976-.64 1.598-.64h16.447c.934 0 1.462.34 1.658 1.039.162.577-.061 1.024-.463 1.412-1.588 1.507-3.171 3.015-4.763 4.516-2.816 2.655-5.636 5.303-8.45 7.958-3.907 3.676-7.804 7.351-11.702 11.033-3.997 3.771-7.991 7.549-11.991 11.318-2.66 2.519-5.33 5.027-8.042 7.579"/><path d="m470.247 98.715v-53.257c0-.153 0-.306.003-.459.018-1.003.529-1.528 1.526-1.586.069-.003.135 0 .198 0 15.228 0 30.453-.036 45.677.021 7 .025 13.7 1.598 20.093 4.46 5.561 2.486 10.444 5.952 14.687 10.315 6.916 7.102 11.51 15.477 13.766 25.14 1.3 5.565 1.837 11.198 1.72 16.895-.162 7.657-1.492 15.089-4.393 22.206-2.42 5.937-5.892 11.213-10.267 15.892-6.705 7.186-14.861 11.909-24.411 14.225-4.123.997-8.297 1.441-12.54 1.435-14.744-.018-29.495-.006-44.245-.009-.252 0-.507-.018-.754-.054-.549-.087-.886-.414-.982-.958-.051-.282-.075-.571-.075-.856-.003-17.804-.003-35.605-.003-53.41m14.895 41.047h.657c9.913 0 19.823.009 29.735-.012 1.778-.003 3.562-.078 5.333-.213 3.682-.291 7.193-1.267 10.55-2.808 4.387-2.006 8.075-4.934 11.252-8.552 2.958-3.366 5.297-7.117 7.021-11.252 1.834-4.402 2.819-8.994 3.183-13.744.336-4.331.201-8.643-.451-12.934-.775-5.072-2.423-9.856-4.973-14.312-2.831-4.955-6.489-9.198-11.183-12.477-5.621-3.925-11.936-5.751-18.75-5.784-10.606-.051-21.218-.015-31.825-.018h-.549z"/><path d="m197.867 100.193c-.639 2.069-2.039 3.585-3.537 5.081-10.036 9.999-20.038 20.035-30.056 30.059-3.61 3.609-7.465 3.6-11.087-.024-10.339-10.348-20.675-20.69-31.008-31.038-3.52-3.523-3.517-7.373.012-10.901 10.39-10.411 20.783-20.813 31.179-31.212 3.381-3.385 7.357-3.388 10.739-.003 10.074 10.077 20.137 20.17 30.233 30.233 1.498 1.493 2.892 3.012 3.525 5.087z"/><path d="m98.237 197.103c-2.063-.655-3.556-2.081-5.042-3.577-9.994-10.044-20.018-20.059-30.033-30.086-3.582-3.585-3.585-7.414-.012-10.991 10.367-10.372 20.73-20.747 31.096-31.116 3.447-3.45 7.396-3.462 10.822-.03 10.366 10.369 20.729 20.744 31.092 31.116 3.559 3.568 3.571 7.475.024 11.015-10.098 10.117-20.215 20.216-30.293 30.351-1.444 1.444-2.928 2.75-4.937 3.318z"/><path d="m61.862 73.98c0-11.534.102-23.071-.066-34.599-.048-3.337.748-5.943 3.297-8.147 2.048-1.772 3.865-3.817 5.787-5.742 7.597-7.606 15.195-15.21 22.795-22.813 3.574-3.574 7.429-3.571 11 0 10.339 10.342 20.675 20.684 31.011 31.026 3.552 3.555 3.546 7.462-.003 11.018-12.222 12.24-24.45 24.477-36.678 36.71-10.795 10.814-21.591 21.621-32.389 32.426-2.003 2.003-3.775 1.537-4.502-1.24-.222-.859-.24-1.787-.24-2.685-.018-11.984-.012-23.969-.012-35.954"/><path d="m37.142 98.97c0 10.58.015 21.168-.024 31.75-.006 1.006-.162 2.072-.522 3.003-.706 1.838-2.033 2.066-3.421.682-4.867-4.859-9.72-9.733-14.579-14.6-5.615-5.625-11.234-11.249-16.846-16.877-2.325-2.333-2.334-5.564-.021-7.906 10.339-10.454 20.678-20.907 31.02-31.36.685-.688 1.33-1.627 2.492-1.186 1.111.417 1.55 1.42 1.706 2.531.099.688.177 1.388.177 2.084.012 10.628.006 21.252.006 31.879z"/></g></svg>

<?xml version="1.0" encoding="utf-8"?>
<svg version="1.1" xmlns="http://www.w3.org/2000/svg">
  <g>
    <path id="path7" d="M 398.781 42.086 C 399.793 42.149 400.808 42.212 401.823 42.281 C 409.597 42.819 417.033 44.645 423.978 48.251 C 428.939 50.831 433.338 54.17 437.263 58.149 C 441.524 62.473 445.05 67.317 447.701 72.782 C 449.65 76.797 451.002 81.004 451.942 85.358 C 453.086 90.697 453.464 96.103 453.239 101.538 C 452.872 110.264 450.942 118.601 446.828 126.363 C 443.96 131.78 440.218 136.531 435.768 140.732 C 428.63 147.471 420.267 151.867 410.657 153.903 C 407.102 154.654 403.519 155.128 399.883 155.242 C 399.721 155.248 399.556 155.296 399.393 155.323 L 395.117 155.323 C 394.186 155.254 393.255 155.191 392.331 155.122 C 381.205 154.317 371.049 150.882 362.247 143.876 C 355.302 138.351 349.86 131.609 346.152 123.513 C 344.266 119.402 343.002 115.09 342.161 110.649 C 341.212 105.625 340.909 100.553 341.161 95.457 C 341.698 84.731 344.524 74.713 350.749 65.836 C 358.034 55.452 367.556 48.065 379.853 44.495 C 383.601 43.407 387.421 42.681 391.316 42.383 C 392.553 42.287 393.787 42.239 395.021 42.164 C 395.225 42.152 395.424 42.113 395.625 42.086 L 398.781 42.086 L 398.781 42.086 Z M 397.09 140.762 C 401.045 140.732 404.871 140.408 408.627 139.48 C 416.804 137.462 423.606 133.219 429.011 126.751 C 434.531 120.15 437.398 112.478 438.176 103.973 C 438.446 101.064 438.476 98.148 438.305 95.229 C 438.113 92.061 437.699 88.926 436.858 85.86 C 434.233 76.289 428.858 68.653 420.6 63.128 C 414.423 58.999 407.51 57.11 400.141 56.743 C 396.114 56.545 392.108 56.728 388.135 57.449 C 381.196 58.71 375.022 61.575 369.701 66.236 C 364.542 70.758 360.809 76.25 358.503 82.71 C 356.752 87.595 356.055 92.655 355.983 97.82 C 355.923 101.832 356.205 105.82 357.076 109.742 C 358.659 116.82 361.842 123.066 366.809 128.387 C 371.193 133.087 376.409 136.465 382.481 138.534 C 387.253 140.159 392.18 140.711 397.09 140.762" style="fill-opacity: 1; fill: rgb(255, 255, 255);"/>
    <path id="path9" d="M 600 152.777 C 599.583 153.789 599.262 153.993 598.118 153.993 C 594.385 153.993 590.652 153.996 586.914 153.993 C 585.598 153.993 585.115 153.504 585.115 152.182 L 585.115 45.263 C 585.115 43.891 585.598 43.41 586.992 43.41 C 590.724 43.41 594.46 43.398 598.19 43.431 C 598.652 43.434 599.154 43.618 599.55 43.861 C 599.787 44.008 599.856 44.428 600 44.732 L 600 152.777 L 600 152.777 Z" style="fill-opacity: 1; fill: rgb(255, 255, 255);"/>
    <path id="path11" d="M 295.471 88.268 C 297.354 90.77 299.219 93.247 301.087 95.727 C 305.042 100.982 308.993 106.238 312.951 111.499 C 318.038 118.261 323.125 125.021 328.212 131.78 C 333.2 138.408 338.179 145.032 343.173 151.654 C 343.545 152.14 343.704 152.636 343.44 153.203 C 343.17 153.774 342.647 153.96 342.059 153.99 C 341.788 154.008 341.518 153.993 341.245 153.993 C 336.647 153.993 332.047 153.99 327.446 153.999 C 326.66 153.999 326.083 153.735 325.588 153.083 C 316.915 141.489 308.222 129.907 299.531 118.324 C 294.597 111.748 289.658 105.169 284.721 98.595 C 284.682 98.541 284.634 98.493 284.565 98.409 C 283.964 98.967 283.37 99.523 282.778 100.073 C 278.772 103.817 274.772 107.559 270.769 111.303 C 268.565 113.363 266.358 115.426 264.139 117.474 C 263.851 117.736 263.733 118 263.733 118.39 C 263.745 129.588 263.742 140.792 263.742 151.993 C 263.742 152.125 263.745 152.263 263.742 152.401 C 263.712 153.425 263.19 153.984 262.166 153.99 C 258.244 154.002 254.325 153.999 250.404 153.99 C 249.41 153.984 248.887 153.425 248.866 152.425 C 248.863 152.311 248.866 152.188 248.866 152.071 L 248.866 45.362 L 248.866 45.257 C 248.866 43.909 249.352 43.413 250.695 43.413 C 254.274 43.413 257.857 43.413 261.436 43.413 C 261.673 43.413 261.911 43.404 262.151 43.413 C 263.187 43.462 263.697 43.972 263.742 45.005 C 263.749 45.158 263.742 45.311 263.742 45.461 L 263.742 97.193 L 263.742 97.91 C 264.631 97.079 265.433 96.337 266.229 95.586 C 270.958 91.151 275.679 86.713 280.412 82.28 C 286.613 76.47 292.817 70.659 299.021 64.848 C 304.219 59.975 309.414 55.095 314.609 50.221 C 316.798 48.164 318.993 46.116 321.179 44.053 C 321.633 43.624 322.155 43.413 322.777 43.413 C 328.26 43.413 333.741 43.413 339.224 43.413 C 340.158 43.413 340.686 43.753 340.882 44.452 C 341.044 45.029 340.821 45.476 340.419 45.864 C 338.831 47.371 337.248 48.879 335.656 50.38 C 332.84 53.035 330.02 55.683 327.206 58.338 C 323.299 62.014 319.402 65.689 315.504 69.371 C 311.507 73.142 307.513 76.92 303.513 80.689 C 300.853 83.208 298.183 85.716 295.471 88.268" style="fill-opacity: 1; fill: rgb(255, 255, 255);"/>
    <path id="path13" d="M 470.247 98.715 L 470.247 45.458 C 470.247 45.305 470.247 45.152 470.25 44.999 C 470.268 43.996 470.779 43.471 471.776 43.413 C 471.845 43.41 471.911 43.413 471.974 43.413 C 487.202 43.413 502.427 43.377 517.651 43.434 C 524.651 43.459 531.351 45.032 537.744 47.894 C 543.305 50.38 548.188 53.846 552.431 58.209 C 559.347 65.311 563.941 73.686 566.197 83.349 C 567.497 88.914 568.034 94.547 567.917 100.244 C 567.755 107.901 566.425 115.333 563.524 122.45 C 561.104 128.387 557.632 133.663 553.257 138.342 C 546.552 145.528 538.396 150.251 528.846 152.567 C 524.723 153.564 520.549 154.008 516.306 154.002 C 501.562 153.984 486.811 153.996 472.061 153.993 C 471.809 153.993 471.554 153.975 471.307 153.939 C 470.758 153.852 470.421 153.525 470.325 152.981 C 470.274 152.699 470.25 152.41 470.25 152.125 C 470.247 134.321 470.247 116.52 470.247 98.715 M 485.142 139.762 L 485.799 139.762 C 495.712 139.762 505.622 139.771 515.534 139.75 C 517.312 139.747 519.096 139.672 520.867 139.537 C 524.549 139.246 528.06 138.27 531.417 136.729 C 535.804 134.723 539.492 131.795 542.669 128.177 C 545.627 124.811 547.966 121.06 549.69 116.925 C 551.524 112.523 552.509 107.931 552.873 103.181 C 553.209 98.85 553.074 94.538 552.422 90.247 C 551.647 85.175 549.999 80.391 547.449 75.935 C 544.618 70.98 540.96 66.737 536.266 63.458 C 530.645 59.533 524.33 57.707 517.516 57.674 C 506.91 57.623 496.298 57.659 485.691 57.656 L 485.142 57.656 L 485.142 139.762 L 485.142 139.762 Z" style="fill-opacity: 1; fill: rgb(255, 255, 255);"/>
    <path id="path17" d="M 197.867 100.193 C 197.228 102.262 195.828 103.778 194.33 105.274 C 184.294 115.273 174.292 125.309 164.274 135.333 C 160.664 138.942 156.809 138.933 153.187 135.309 C 142.848 124.961 132.512 114.619 122.179 104.271 C 118.659 100.748 118.662 96.898 122.191 93.37 C 132.581 82.959 142.974 72.557 153.37 62.158 C 156.751 58.773 160.727 58.77 164.109 62.155 C 174.183 72.232 184.246 82.325 194.342 92.388 C 195.84 93.881 197.234 95.4 197.867 97.475 L 197.867 100.193 L 197.867 100.193 Z" style="fill-opacity: 1; fill: rgb(255, 255, 255);"/>
    <path id="path19" d="M 98.237 197.103 C 96.174 196.448 94.681 195.022 93.195 193.526 C 83.201 183.482 73.177 173.467 63.162 163.44 C 59.58 159.855 59.577 156.026 63.15 152.449 C 73.517 142.077 83.88 131.702 94.246 121.333 C 97.693 117.883 101.642 117.871 105.068 121.303 C 115.434 131.672 125.797 142.047 136.16 152.419 C 139.719 155.987 139.731 159.894 136.184 163.434 C 126.086 173.551 115.969 183.65 105.891 193.785 C 104.447 195.229 102.963 196.535 100.954 197.103 L 98.237 197.103 L 98.237 197.103 Z" style="fill-opacity: 1; fill: rgb(255, 255, 255);"/>
    <path id="path21" d="M 61.862 73.98 C 61.862 62.446 61.964 50.909 61.796 39.381 C 61.748 36.044 62.544 33.438 65.093 31.234 C 67.141 29.462 68.958 27.417 70.88 25.492 C 78.477 17.886 86.075 10.282 93.675 2.679 C 97.249 -0.895 101.104 -0.892 104.675 2.679 C 115.014 13.021 125.35 23.363 135.686 33.705 C 139.238 37.26 139.232 41.167 135.683 44.723 C 123.461 56.963 111.233 69.2 99.005 81.433 C 88.21 92.247 77.414 103.054 66.616 113.859 C 64.613 115.862 62.841 115.396 62.114 112.619 C 61.892 111.76 61.874 110.832 61.874 109.934 C 61.856 97.95 61.862 85.965 61.862 73.98" style="fill-opacity: 1; fill: rgb(255, 255, 255);"/>
    <path id="path23" d="M 37.142 98.97 C 37.142 109.55 37.157 120.138 37.118 130.72 C 37.112 131.726 36.956 132.792 36.596 133.723 C 35.89 135.561 34.563 135.789 33.175 134.405 C 28.308 129.546 23.455 124.672 18.596 119.805 C 12.981 114.18 7.362 108.556 1.75 102.928 C -0.575 100.595 -0.584 97.364 1.729 95.022 C 12.068 84.568 22.407 74.115 32.749 63.662 C 33.434 62.974 34.079 62.035 35.241 62.476 C 36.352 62.893 36.791 63.896 36.947 65.007 C 37.046 65.695 37.124 66.395 37.124 67.091 C 37.136 77.719 37.13 88.343 37.13 98.97 L 37.142 98.97 Z" style="fill-opacity: 1; fill: rgb(255, 255, 255);"/>
  </g>
</svg>
